dist/img/card/discount15@1024.svg

<svg width="66" height="66" viewBox="0 0 66 66" fill="none" xmlns="http://www.w3.org/2000/svg">
<circle cx="33" cy="33" r="33" fill="#FFBD13"/>
<path d="M10.14 31.93H15.32V33.99H10.14V31.93ZM26.8109 37.15V39H18.8109V37.15H21.7409V28.72C21.7409 28.3867 21.7509 28.0433 21.7709 27.69L19.6909 29.43C19.5709 29.5233 19.4509 29.5833 19.3309 29.61C19.2176 29.63 19.1076 29.63 19.0009 29.61C18.9009 29.59 18.8109 29.5567 18.7309 29.51C18.6509 29.4567 18.5909 29.4 18.5509 29.34L17.7709 28.27L22.1809 24.52H24.2109V37.15H26.8109ZM32.1225 29.79C32.4425 29.7233 32.7492 29.6767 33.0425 29.65C33.3358 29.6167 33.6192 29.6 33.8925 29.6C34.6525 29.6 35.3225 29.7133 35.9025 29.94C36.4825 30.1667 36.9692 30.48 37.3625 30.88C37.7558 31.28 38.0525 31.75 38.2525 32.29C38.4525 32.8233 38.5525 33.4 38.5525 34.02C38.5525 34.7867 38.4158 35.4867 38.1425 36.12C37.8758 36.7533 37.5025 37.2967 37.0225 37.75C36.5425 38.1967 35.9725 38.5433 35.3125 38.79C34.6592 39.0367 33.9458 39.16 33.1725 39.16C32.7192 39.16 32.2892 39.1133 31.8825 39.02C31.4758 38.9267 31.0925 38.8033 30.7325 38.65C30.3792 38.49 30.0492 38.31 29.7425 38.11C29.4425 37.9033 29.1725 37.6867 28.9325 37.46L29.6925 36.41C29.8525 36.1833 30.0625 36.07 30.3225 36.07C30.4892 36.07 30.6592 36.1233 30.8325 36.23C31.0058 36.3367 31.2025 36.4533 31.4225 36.58C31.6492 36.7067 31.9125 36.8233 32.2125 36.93C32.5192 37.0367 32.8858 37.09 33.3125 37.09C33.7658 37.09 34.1658 37.0167 34.5125 36.87C34.8592 36.7233 35.1458 36.52 35.3725 36.26C35.6058 35.9933 35.7792 35.68 35.8925 35.32C36.0125 34.9533 36.0725 34.5567 36.0725 34.13C36.0725 33.3433 35.8425 32.73 35.3825 32.29C34.9292 31.8433 34.2558 31.62 33.3625 31.62C32.6758 31.62 31.9725 31.7467 31.2525 32L29.7125 31.56L30.9125 24.54H38.0525V25.59C38.0525 25.9433 37.9425 26.23 37.7225 26.45C37.5025 26.67 37.1292 26.78 36.6025 26.78H32.6325L32.1225 29.79ZM47.1141 28.04C47.1141 28.5867 47.0207 29.08 46.8341 29.52C46.6541 29.96 46.4107 30.3367 46.1041 30.65C45.7974 30.9567 45.4407 31.1933 45.0341 31.36C44.6274 31.5267 44.2041 31.61 43.7641 31.61C43.2841 31.61 42.8407 31.5267 42.4341 31.36C42.0274 31.1933 41.6741 30.9567 41.3741 30.65C41.0807 30.3367 40.8507 29.96 40.6841 29.52C40.5174 29.08 40.4341 28.5867 40.4341 28.04C40.4341 27.48 40.5174 26.9733 40.6841 26.52C40.8507 26.0667 41.0807 25.6833 41.3741 25.37C41.6741 25.0567 42.0274 24.8167 42.4341 24.65C42.8407 24.4767 43.2841 24.39 43.7641 24.39C44.2441 24.39 44.6874 24.4767 45.0941 24.65C45.5074 24.8167 45.8641 25.0567 46.1641 25.37C46.4641 25.6833 46.6974 26.0667 46.8641 26.52C47.0307 26.9733 47.1141 27.48 47.1141 28.04ZM45.2141 28.04C45.2141 27.6533 45.1741 27.33 45.0941 27.07C45.0207 26.81 44.9174 26.6 44.7841 26.44C44.6574 26.28 44.5041 26.1667 44.3241 26.1C44.1507 26.0267 43.9641 25.99 43.7641 25.99C43.5641 25.99 43.3774 26.0267 43.2041 26.1C43.0307 26.1667 42.8807 26.28 42.7541 26.44C42.6341 26.6 42.5374 26.81 42.4641 27.07C42.3907 27.33 42.3541 27.6533 42.3541 28.04C42.3541 28.4133 42.3907 28.7267 42.4641 28.98C42.5374 29.2267 42.6341 29.4267 42.7541 29.58C42.8807 29.7333 43.0307 29.8433 43.2041 29.91C43.3774 29.9767 43.5641 30.01 43.7641 30.01C43.9641 30.01 44.1507 29.9767 44.3241 29.91C44.5041 29.8433 44.6574 29.7333 44.7841 29.58C44.9174 29.4267 45.0207 29.2267 45.0941 28.98C45.1741 28.7267 45.2141 28.4133 45.2141 28.04ZM51.9241 24.93C52.0107 24.83 52.1107 24.74 52.2241 24.66C52.3441 24.58 52.5107 24.54 52.7241 24.54H54.5241L43.7841 38.63C43.6974 38.7367 43.5941 38.8267 43.4741 38.9C43.3541 38.9667 43.2074 39 43.0341 39H41.1941L51.9241 24.93ZM55.2841 35.6C55.2841 36.1467 55.1907 36.64 55.0041 37.08C54.8241 37.52 54.5807 37.8967 54.2741 38.21C53.9674 38.5167 53.6107 38.7567 53.2041 38.93C52.7974 39.0967 52.3741 39.18 51.9341 39.18C51.4541 39.18 51.0107 39.0967 50.6041 38.93C50.1974 38.7567 49.8441 38.5167 49.5441 38.21C49.2507 37.8967 49.0207 37.52 48.8541 37.08C48.6874 36.64 48.6041 36.1467 48.6041 35.6C48.6041 35.04 48.6874 34.5333 48.8541 34.08C49.0207 33.6267 49.2507 33.2433 49.5441 32.93C49.8441 32.6167 50.1974 32.3767 50.6041 32.21C51.0107 32.0367 51.4541 31.95 51.9341 31.95C52.4141 31.95 52.8574 32.0367 53.2641 32.21C53.6774 32.3767 54.0307 32.6167 54.3241 32.93C54.6241 33.2433 54.8574 33.6267 55.0241 34.08C55.1974 34.5333 55.2841 35.04 55.2841 35.6ZM53.3741 35.6C53.3741 35.2133 53.3374 34.89 53.2641 34.63C53.1907 34.37 53.0874 34.16 52.9541 34C52.8274 33.84 52.6741 33.7267 52.4941 33.66C52.3207 33.5867 52.1341 33.55 51.9341 33.55C51.7341 33.55 51.5474 33.5867 51.3741 33.66C51.2007 33.7267 51.0507 33.84 50.9241 34C50.7974 34.16 50.6974 34.37 50.6241 34.63C50.5574 34.89 50.5241 35.2133 50.5241 35.6C50.5241 35.9733 50.5574 36.2867 50.6241 36.54C50.6974 36.7933 50.7974 36.9967 50.9241 37.15C51.0507 37.3033 51.2007 37.4133 51.3741 37.48C51.5474 37.5467 51.7341 37.58 51.9341 37.58C52.1341 37.58 52.3207 37.5467 52.4941 37.48C52.6741 37.4133 52.8274 37.3033 52.9541 37.15C53.0874 36.9967 53.1907 36.7933 53.2641 36.54C53.3374 36.2867 53.3741 35.9733 53.3741 35.6Z" fill="white"/>
</svg>

<svg width="66" height="66" fill="none" xmlns="http://www.w3.org/2000/svg"><circle cx="33" cy="33" r="33" fill="#FFBD13"/><path d="M10.14 31.93h5.18v2.06h-5.18v-2.06Zm16.67 5.22V39h-8v-1.85h2.93v-8.43c0-.333.01-.677.03-1.03l-2.08 1.74a.915.915 0 0 1-.36.18.87.87 0 0 1-.6-.1.635.635 0 0 1-.18-.17l-.78-1.07 4.41-3.75h2.03v12.63h2.6Zm5.313-7.36c.32-.067.626-.113.92-.14a7.54 7.54 0 0 1 .85-.05c.76 0 1.43.113 2.01.34.58.227 1.066.54 1.46.94.393.4.69.87.89 1.41.2.533.3 1.11.3 1.73 0 .767-.137 1.467-.41 2.1a4.746 4.746 0 0 1-1.12 1.63c-.48.447-1.05.793-1.71 1.04a6.011 6.011 0 0 1-2.14.37c-.454 0-.884-.047-1.29-.14a6.823 6.823 0 0 1-1.15-.37 7.39 7.39 0 0 1-.99-.54 6.77 6.77 0 0 1-.81-.65l.76-1.05c.16-.227.37-.34.63-.34a.97.97 0 0 1 .51.16c.173.107.37.223.59.35.226.127.49.243.79.35.306.107.673.16 1.1.16.453 0 .853-.073 1.2-.22.346-.147.633-.35.86-.61a2.59 2.59 0 0 0 .52-.94c.12-.367.18-.763.18-1.19 0-.787-.23-1.4-.69-1.84-.454-.447-1.127-.67-2.02-.67-.687 0-1.39.127-2.11.38l-1.54-.44 1.2-7.02h7.14v1.05c0 .353-.11.64-.33.86-.22.22-.594.33-1.12.33h-3.97l-.51 3.01Zm14.991-1.75c0 .547-.093 1.04-.28 1.48-.18.44-.423.817-.73 1.13a3.317 3.317 0 0 1-2.34.96c-.48 0-.923-.083-1.33-.25a3.12 3.12 0 0 1-1.06-.71 3.384 3.384 0 0 1-.69-1.13 4.151 4.151 0 0 1-.25-1.48c0-.56.083-1.067.25-1.52.167-.453.397-.837.69-1.15.3-.313.653-.553 1.06-.72.407-.173.85-.26 1.33-.26.48 0 .923.087 1.33.26.413.167.77.407 1.07.72.3.313.533.697.7 1.15.167.453.25.96.25 1.52Zm-1.9 0c0-.387-.04-.71-.12-.97a1.69 1.69 0 0 0-.31-.63 1.042 1.042 0 0 0-.46-.34 1.423 1.423 0 0 0-.56-.11c-.2 0-.387.037-.56.11-.173.067-.323.18-.45.34-.12.16-.217.37-.29.63a3.63 3.63 0 0 0-.11.97c0 .373.037.687.11.94.073.247.17.447.29.6.127.153.277.263.45.33s.36.1.56.1c.2 0 .387-.033.56-.1.18-.067.333-.177.46-.33.133-.153.237-.353.31-.6.08-.253.12-.567.12-.94Zm6.71-3.11c.087-.1.187-.19.3-.27.12-.08.287-.12.5-.12h1.8l-10.74 14.09c-.087.107-.19.197-.31.27a.894.894 0 0 1-.44.1h-1.84l10.73-14.07Zm3.36 10.67c0 .547-.093 1.04-.28 1.48-.18.44-.423.817-.73 1.13a3.362 3.362 0 0 1-1.07.72c-.407.167-.83.25-1.27.25-.48 0-.923-.083-1.33-.25a3.246 3.246 0 0 1-1.06-.72 3.384 3.384 0 0 1-.69-1.13 4.151 4.151 0 0 1-.25-1.48c0-.56.083-1.067.25-1.52.167-.453.397-.837.69-1.15.3-.313.653-.553 1.06-.72.407-.173.85-.26 1.33-.26.48 0 .923.087 1.33.26.413.167.767.407 1.06.72.3.313.533.697.7 1.15.173.453.26.96.26 1.52Zm-1.91 0c0-.387-.037-.71-.11-.97a1.69 1.69 0 0 0-.31-.63 1.042 1.042 0 0 0-.46-.34 1.423 1.423 0 0 0-.56-.11c-.2 0-.387.037-.56.11-.173.067-.323.18-.45.34-.127.16-.227.37-.3.63-.067.26-.1.583-.1.97 0 .373.033.687.1.94.073.253.173.457.3.61.127.153.277.263.45.33s.36.1.56.1c.2 0 .387-.033.56-.1.18-.067.333-.177.46-.33.133-.153.237-.357.31-.61.073-.253.11-.567.11-.94Z" fill="#fff"/></svg>
